assets/images/afrikons/play-outline.svg

<svg viewBox="0 0 50 50" xmlns="http://www.w3.org/2000/svg"><path d="m0 0h50v50h-50z" fill="none"/><path d="m10.1 2a3.67 3.67 0 0 1 2 .61l29.83 19.27a3.71 3.71 0 0 1 0 6.24l-29.83 19.28a3.67 3.67 0 0 1 -2 .61 3.73 3.73 0 0 1 -3.73-3.72v-38.58a3.73 3.73 0 0 1 3.73-3.71m0-2a5.71 5.71 0 0 0 -5.72 5.71v38.58a5.7 5.7 0 0 0 8.8 4.79l29.82-19.29a5.7 5.7 0 0 0 0-9.58l-29.82-19.29a5.68 5.68 0 0 0 -3.08-.92z" fill="#212121"/></svg>

<svg xmlns="http://www.w3.org/2000/svg" viewBox="0 0 50 50"><defs><style>.cls-1{fill:none;}.cls-2{fill:#212121;}</style></defs><title>play-outline</title><g id="Layer_2" data-name="Layer 2"><g id="Layer_1-2" data-name="Layer 1"><rect class="cls-1" width="50" height="50"/><path class="cls-2" d="M10.1,2a3.67,3.67,0,0,1,2,.61L41.93,21.88a3.71,3.71,0,0,1,0,6.24L12.1,47.4a3.67,3.67,0,0,1-2,.61,3.73,3.73,0,0,1-3.73-3.72V5.71A3.73,3.73,0,0,1,10.1,2m0-2A5.71,5.71,0,0,0,4.38,5.71V44.29a5.7,5.7,0,0,0,8.8,4.79L43,29.79a5.7,5.7,0,0,0,0-9.58L13.18.92A5.68,5.68,0,0,0,10.1,0Z"/></g></g></svg>
